src/pos-icons/beaker-minus-outline.svg

<svg height="24" viewBox="0 0 24 24" width="24" xmlns="http://www.w3.org/2000/svg"><path d="m23 17v2h-8v-2zm-20-14h18v2c-1.1 0-2 .9-2 2v8h-2v-10h-10v2h5v1h-5v1h3v1h-3v1h3v1h-3v1h5v1h-5v1h3v1h-3v3h6.08c.12.72.37 1.39.72 2h-6.8c-1.1 0-2-.89-2-2v-12c0-1.1-.89-2-2-2z"/></svg>

<?xml version="1.0" encoding="UTF-8"?><!DOCTYPE svg PUBLIC "-//W3C//DTD SVG 1.1//EN" "http://www.w3.org/Graphics/SVG/1.1/DTD/svg11.dtd"><svg xmlns="http://www.w3.org/2000/svg" xmlns:xlink="http://www.w3.org/1999/xlink" version="1.1" id="mdi-beaker-minus-outline" width="24" height="24" viewBox="0 0 24 24"><path d="M23 17V19H15V17H23M3 3H21V5C19.9 5 19 5.9 19 7V15H17V5H7V7H12V8H7V9H10V10H7V11H10V12H7V13H12V14H7V15H10V16H7V19H13.08C13.2 19.72 13.45 20.39 13.8 21H7C5.9 21 5 20.11 5 19V7C5 5.9 4.11 5 3 5V3Z" /></svg>
